Papirus/24x24/apps/speedcrunch.svg

<svg width="24" height="24" version="1" xmlns="http://www.w3.org/2000/svg">
 <path d="m19.93229 21v-18c0-0.554-0.44411-1-0.99576-1h-13.94c-0.5522 0-0.9963 0.446-0.9963 1v18c0 0.554 0.44411 1 0.99576 1h13.941c0.55165 0 0.99576-0.446 0.99576-1z" style="fill:#4a1a3a"/>
 <path d="m4.99579 2c-0.5517 0-0.9958 0.446-0.9958 1v0.5c0-0.554 0.44411-1 0.99576-1h13.941c0.55165 0 0.99576 0.446 0.99576 1v-0.5c0-0.554-0.44411-1-0.99576-1z" style="fill:#ffffff;opacity:.1"/>
 <path d="m4.00019 21v0.5c0 0.554 0.44411 1 0.99576 1h13.941c0.551 0 0.995-0.446 0.995-1v-0.5c0 0.554-0.44411 1-0.99576 1h-13.94c-0.5518 0-0.9959-0.446-0.9959-1z" style="opacity:.2"/>
 <rect x="6" y="5" width="10" height="1" style="fill:#e4e4e4"/>
 <rect x="8" y="7" width="8" height="1" style="fill:#667b9e"/>
 <rect x="6" y="10" width="10" height="1" style="fill:#e4e4e4"/>
 <rect x="8" y="12" width="8" height="1" style="fill:#667b9e"/>
 <path d="m4 17v4c0 0.554 0.4444438 1 0.9960938 1h13.941406c0.55165 0 0.996094-0.446 0.996094-1h-2e-3v-4z" style="fill:#3b1530"/>
 <circle cx="16.932289" cy="17" r="6" style="fill:#d38b2e"/>
 <path d="m14 15v1h6v-1zm0 3v1h6v-1z" style="fill:#ffffff"/>
</svg>

<svg xmlns="http://www.w3.org/2000/svg" width="24" height="24" version="1">
 <rect style="opacity:0.2" width="16" height="20" x="4" y="2.5" rx="1" ry="1"/>
 <rect width="16" height="20" x="4" y="2" rx="1" ry="1" style="fill:#4a1a3a"/>
 <path style="fill:#3b1530" d="M 4 17 L 4 21 C 4 21.554 4.446 22 5 22 L 19 22 C 19.554 22 20 21.554 20 21 L 20 17 L 4 17 z"/>
 <rect width="10" height="1" x="6" y="5" style="fill:#e4e4e4"/>
 <rect width="8" height="1" x="8" y="7" style="fill:#667b9e"/>
 <rect width="10" height="1" x="6" y="10" style="fill:#e4e4e4"/>
 <rect width="8" height="1" x="8" y="12" style="fill:#667b9e"/>
 <circle cx="17" cy="17" r="6" style="fill:#d38b2e"/>
 <path d="m14 15v1h6v-1zm0 3v1h6v-1z" style="fill:#ffffff"/>
 <path style="opacity:0.1;fill:#ffffff" d="M 5 2 C 4.446 2 4 2.446 4 3 L 4 3.5 C 4 2.946 4.446 2.5 5 2.5 L 19 2.5 C 19.554 2.5 20 2.946 20 3.5 L 20 3 C 20 2.446 19.554 2 19 2 L 5 2 z"/>
</svg>
